src/assets/svg/icons/fa/nuevos/classic/thin/square-divide classic thin.svg

<svg xmlns="http://www.w3.org/2000/svg" viewBox="0 0 448 512"><!--! Font Awesome Pro 6.4.0 by @fontawesome - https://fontawesome.com License - https://fontawesome.com/license (Commercial License) Copyright 2023 Fonticons, Inc. --><path d="M64 48C37.5 48 16 69.5 16 96V416c0 26.5 21.5 48 48 48H384c26.5 0 48-21.5 48-48V96c0-26.5-21.5-48-48-48H64zM0 96C0 60.7 28.7 32 64 32H384c35.3 0 64 28.7 64 64V416c0 35.3-28.7 64-64 64H64c-35.3 0-64-28.7-64-64V96zm240 64a16 16 0 1 0 -32 0 16 16 0 1 0 32 0zm-48 0a32 32 0 1 1 64 0 32 32 0 1 1 -64 0zm-72 88H328c4.4 0 8 3.6 8 8s-3.6 8-8 8H120c-4.4 0-8-3.6-8-8s3.6-8 8-8zM224 368a16 16 0 1 0 0-32 16 16 0 1 0 0 32zm0-48a32 32 0 1 1 0 64 32 32 0 1 1 0-64z"/></svg>

<svg xmlns="http://www.w3.org/2000/svg" viewBox="0 0 448 512"><path d="M256 160C256 177.7 241.7 192 224 192C206.3 192 192 177.7 192 160C192 142.3 206.3 128 224 128C241.7 128 256 142.3 256 160zM224 144C215.2 144 208 151.2 208 160C208 168.8 215.2 176 224 176C232.8 176 240 168.8 240 160C240 151.2 232.8 144 224 144zM328 248C332.4 248 336 251.6 336 256C336 260.4 332.4 264 328 264H120C115.6 264 112 260.4 112 256C112 251.6 115.6 248 120 248H328zM192 352C192 334.3 206.3 320 224 320C241.7 320 256 334.3 256 352C256 369.7 241.7 384 224 384C206.3 384 192 369.7 192 352zM224 368C232.8 368 240 360.8 240 352C240 343.2 232.8 336 224 336C215.2 336 208 343.2 208 352C208 360.8 215.2 368 224 368zM0 96C0 60.65 28.65 32 64 32H384C419.3 32 448 60.65 448 96V416C448 451.3 419.3 480 384 480H64C28.65 480 0 451.3 0 416V96zM16 96V416C16 442.5 37.49 464 64 464H384C410.5 464 432 442.5 432 416V96C432 69.49 410.5 48 384 48H64C37.49 48 16 69.49 16 96z"/></svg>
